<?xml version="1.0" encoding="UTF-8"?>
<map version="1.10" tiledversion="1.12.2" orientation="orthogonal" renderorder="right-down" width="80" height="50" tilewidth="16" tileheight="16" infinite="0" nextlayerid="2" nextobjectid="1">
 <tileset firstgid="1" name="terrain_tileset" tilewidth="16" tileheight="16" tilecount="1530" columns="51">
  <image source="terrain_tileset.png" width="816" height="480"/>
 </tileset>
 <layer id="1" name="Tile Layer 1" width="80" height="50">
  <data encoding="csv">
1225,1225,1225,1225,1225,1225,1225,1225,1225,1225,1225,1225,1225,1225,1225,1225,1127,1225,1225,1225,1225,1225,1225,1225,1225,1225,1225,1225,1225,1225,1225,1225,1225,1225,1225,1225,1225,1225,1138,1138,1138,1138,1138,1225,1225,1225,1225,1225,1225,1225,1225,1225,1225,1225,1225,1225,1225,1225,1225,1225,1225,1225,1225,1225,1433,1225,1225,1225,1225,1127,1225,1225,1225,1225,1225,1225,1225,1225,1225,1225,
1225,1225,1225,1225,1225,1225,1225,1433,1225,1225,1225,1225,1225,1225,1225,1225,1127,1225,1225,1225,1225,1225,1225,1225,1225,1225,1225,1225,1225,1225,1225,1225,1225,1225,1225,1225,1225,1225,1225,1138,1138,1138,1138,1138,1225,1225,1225,1225,1225,1225,1225,1225,1225,1225,1225,1225,1225,1225,1225,1225,1225,1225,1225,1225,1225,1225,1225,1225,1225,1433,1225,1225,1225,1225,1225,1225,1127,1225,1225,1225,
1225,1225,1225,1225,1225,1225,1225,1433,1225,1433,1225,1225,1225,1225,1225,1127,1127,1225,1225,1225,1225,1225,1225,1127,1225,1225,1225,1225,1225,1225,1225,1225,1225,1225,1225,1225,1433,1225,1225,1225,1138,1138,1138,1138,1138,1225,1225,1225,1225,1225,1225,1225,1225,1225,1225,1225,1225,1225,1225,1225,1225,1225,1225,1225,1225,1225,1225,1225,1225,1225,1127,1225,1225,1225,1225,1225,1225,1225,1225,1225,
1225,1225,1225,1225,1225,1225,1225,1225,1225,1225,1225,1225,1225,1225,1225,1225,1225,1225,1225,1225,1225,1225,1225,1433,1225,1225,1225,1225,1225,1225,1225,1225,1225,1225,1225,1225,1225,1433,1433,1127,1225,1138,1138,1138,1138,1138,1225,1225,1225,1225,1225,1225,1225,1225,1225,1225,1225,1225,1225,1225,1225,1225,1225,1225,1127,1225,1225,1225,1225,1225,1225,1225,1225,1225,1225,1225,1225,1225,1225,1433,
1225,1127,1225,1225,1225,1225,1225,1225,1225,1225,1225,1225,1225,1225,1225,1225,1225,1225,1225,1225,1225,1225,1225,1225,1225,1225,1225,1225,1225,1225,1225,1225,1225,1225,1225,1225,1225,1225,1225,1225,1225,1225,1138,1138,1138,1138,1138,1225,1225,1225,1225,1225,1225,1225,1225,1225,1225,1225,1225,1225,1225,1225,1225,1225,1225,1225,1127,1225,1225,1225,1225,1225,1225,1225,1225,1225,1225,1225,1225,1225,
1225,1225,1225,1225,1225,1225,1225,1225,1225,1225,1225,1225,1225,1225,1225,1225,1225,1225,1225,1127,1225,1225,1225,1225,1225,1225,1225,1225,1225,1225,1225,1225,1225,1225,1225,1225,1225,1225,1225,1225,1225,1138,1138,1138,1138,1138,1138,1138,1225,1225,1225,1225,1225,1225,1225,1225,1225,1225,1127,1225,1225,1225,1225,1225,1225,1225,1225,1225,1225,1225,1225,1225,1225,1225,1225,1225,1225,1225,1127,1225,
1225,1225,1225,1225,1225,1225,1225,1225,1225,1225,1225,1127,1225,1225,1225,1225,1225,1225,1225,1225,1225,1225,1225,1225,1225,1225,1225,1225,1225,1225,1225,1225,1225,1127,1225,1225,1225,1225,1225,1225,1225,1138,1138,1138,1138,1138,1138,1138,1225,1225,1225,1225,1225,1225,1225,1225,1225,1225,1225,1225,1225,1225,1225,1127,1433,1225,1225,1225,1225,1225,1225,1225,1225,1225,1225,1225,1225,1225,1225,1225,
1225,1225,1225,1225,1225,1225,1225,1225,1225,1225,1127,1225,1127,1433,1225,1225,1225,1225,1225,1225,1225,1225,1225,1225,1225,1225,1225,1225,1225,1225,1225,1225,1225,1225,1225,1225,1225,1225,1225,1225,1225,1138,1138,1138,1138,1138,1138,1138,1225,1225,1433,1225,1127,1225,1225,1225,1225,1225,1127,1225,1225,1225,1225,1433,1225,1225,1225,1225,1225,1225,1225,1225,1225,1225,1225,1225,1225,1225,1225,1225,
1225,1225,1225,1225,1225,1225,1433,1225,1225,1225,1225,1225,1225,1433,1225,1225,1225,1225,1225,1225,1225,1225,1225,1225,1225,1225,1225,1225,1225,1225,1225,1225,1225,1225,1225,1225,1225,1225,1225,1225,1225,1138,1138,1138,1138,1138,1138,1138,1127,1225,1225,1127,1225,1225,1225,1225,1225,1225,1225,1127,1225,1225,1225,1225,1225,1225,1225,1225,1225,1225,1225,1225,1225,1225,1225,1225,1225,1225,1225,1225,
1225,1225,1225,1225,1225,1225,1225,1225,1225,1225,1225,1225,1127,1433,1225,1225,1225,1225,1225,1225,1225,1225,1225,1225,1225,1225,1225,1225,1225,1225,1225,1225,1225,1225,1225,1225,1225,1225,1225,1225,1138,1138,1138,1138,1138,1138,1138,1225,1225,1225,1225,1225,1225,1225,1225,1225,1225,1225,1225,1225,1225,1225,1225,1225,1225,1225,1225,1225,1225,1225,1225,1225,1225,1225,1225,1225,1225,1225,1225,1225,
1225,1225,1225,1225,1225,1127,1225,1225,1225,1225,1225,1225,1225,1433,1225,1225,1225,1225,1225,1225,1225,1225,1225,1225,1225,1225,1225,1225,1225,1225,1225,1225,1225,1225,1225,1225,1225,1225,1225,1225,1138,1138,1138,1138,1138,1225,1225,1225,1225,1225,1225,1225,1225,1225,1225,1433,1433,1225,1225,1225,1225,1225,1225,1225,1225,1225,1225,1225,1225,1225,1225,1225,1225,1225,1225,1225,1225,1225,1225,1225,
1225,1225,1225,1225,1225,1225,1225,1225,1225,1225,1225,1225,1225,1225,1225,1225,1225,1225,1225,1225,1225,1225,1225,1225,1225,1225,1225,1225,1433,1225,1127,1225,1225,1225,1225,1225,1225,1225,1225,1225,1138,1138,1138,1138,1138,1225,1225,1225,1225,1225,1225,1225,1225,1225,1225,1225,1225,1225,1225,1225,1225,1225,1225,1225,1225,1225,1225,1225,1225,1225,1225,1225,1225,1225,1225,1225,1225,1225,1225,1225,
1225,1225,1225,1225,1433,1225,1225,1225,1225,1225,1225,1225,1225,1225,1225,1225,1225,1225,1225,1225,1138,1225,1225,1225,1225,1225,1225,1225,1225,1127,1225,1225,1225,1225,1225,1225,1225,1225,1225,1138,1138,1138,1138,1138,1225,1225,1225,1225,1433,1225,1225,1225,1225,1225,1225,1225,1225,1225,1225,1225,1225,1225,1225,1225,1225,1225,1225,1225,1225,1225,1225,1225,1225,1225,1225,1225,1225,1225,1225,1225,
1225,1225,1225,1225,1225,1225,1225,1225,1225,1225,1225,1225,1225,1225,1225,1225,1138,1138,1138,1138,1138,1138,1138,1138,1138,1225,1225,1225,1225,1225,1225,1225,1225,1225,1225,1225,1225,1225,1225,1138,1138,1138,1138,1138,1225,1225,1225,1225,1225,1225,1225,1225,1225,1225,1225,1225,1225,1225,1225,1225,1225,1225,1225,1225,1225,1225,1225,1225,1225,1225,1225,1225,1225,1225,1225,1225,1225,1225,1225,1225,
1225,1225,1225,1225,1225,1225,1225,1225,1225,1225,1225,1225,1225,1225,1138,1138,1138,1138,1138,1138,1138,1138,1138,1138,1138,1138,1138,1225,1225,1225,1225,1225,1225,1225,1225,1225,1225,1225,1225,1138,1138,1138,1138,1138,1225,1225,1225,1225,1225,1225,1225,1225,1225,1225,1225,1225,1225,1225,1225,1225,1225,1225,1225,1225,1225,1225,1225,1433,1225,1225,1225,1225,1225,1225,1225,1225,1225,1225,1225,1225,
1225,1225,1225,1225,1225,1225,1225,1225,1225,1225,1225,1225,1225,1225,1138,1138,1138,1138,1138,1138,1138,1138,1138,1138,1138,1138,1138,1225,1225,1225,1433,1225,1225,1225,1225,1225,1225,1225,1138,1138,1138,1138,1138,1138,1138,1225,1225,1225,1225,1225,1225,1225,1433,1225,1225,1225,1225,1225,1225,1225,1225,1127,1225,1225,1225,1225,1225,1225,1225,1225,1225,1225,1225,1225,1225,1225,1225,1225,1225,1225,
1225,1225,1127,1225,1225,1225,1225,1225,1225,1225,1225,1225,1225,1138,1138,1138,1138,1138,1138,1138,1138,1138,1138,1138,1138,1138,1138,1138,1225,1225,1433,1225,1225,1225,1225,1225,1225,1225,1138,1138,1138,1138,1138,1138,1138,1433,1225,1225,1225,1225,1225,1225,1127,1225,1225,1225,1225,1225,1225,1433,1225,1127,1225,1225,1225,1225,1225,1225,1225,1225,1225,1225,1225,1225,1225,1225,1225,1225,1225,1225,
1225,1225,1225,1225,1225,1225,1225,1225,1225,1225,1225,1225,1225,1225,1138,1138,1138,1138,1138,1138,1138,1138,1138,1138,1138,1138,1138,1225,1225,1225,1433,1225,1225,1225,1127,1225,1225,1225,1138,1138,1138,1138,1138,1138,1138,1225,1225,1225,1225,1225,1225,1225,1127,1225,1225,1225,1225,1225,1225,1127,1127,1127,1225,1225,1225,1225,1225,1225,1225,1225,1225,1225,1225,1225,1225,1225,1225,1225,1225,1225,
1225,1225,1127,1225,1225,1225,1225,1225,1225,1225,1225,1225,1225,1225,1138,1138,1138,1138,1138,1138,1138,1138,1138,1138,1138,1138,1138,1225,1225,1225,1225,1225,1225,1225,1225,1225,1225,1225,1138,1138,1138,1138,1138,1138,1138,1225,1225,1225,1225,1225,1225,1225,1225,1225,1225,1225,1225,1225,1225,1225,1127,1225,1225,1225,1225,1225,1225,1225,1225,1225,1225,1225,1225,1225,1225,1225,1225,1225,1225,1225,
1225,1225,1225,1225,1225,1225,1225,1225,1225,1225,1127,1225,1127,1225,1225,1225,1138,1138,1138,1138,1138,1138,1138,1138,1138,1225,1225,1225,1225,1225,1225,1225,1225,1225,1225,1225,1225,1225,1138,1138,1138,1138,1138,1138,1138,1225,1225,1225,1225,1225,1225,1225,1225,1225,1225,1225,1225,1225,1225,1225,1225,1225,1225,1225,1225,1225,1225,1225,1225,1225,1225,1225,1225,1225,1225,1225,1225,1225,1225,1225,
1225,1225,1225,1225,1225,1225,1225,1225,1225,1225,1225,1225,1127,1225,1225,1225,1225,1225,1225,1225,1138,1225,1225,1225,1225,1225,1433,1225,1225,1225,1225,1225,1225,1225,1225,1225,1225,1225,1225,1138,1138,1138,1138,1138,1225,1225,1225,1225,1225,1225,1225,1225,1225,1225,1225,1225,1225,1225,1225,1433,1225,1225,1225,1225,1225,1225,1225,1225,1225,1225,1225,1225,1225,1225,1225,1225,1225,1225,1225,1225,
1225,1225,1225,1225,1225,1225,1225,1225,1225,1225,1225,1225,1225,1225,1225,1225,1225,1225,1225,1225,1225,1433,1225,1225,1225,1225,1225,1127,1225,1225,1225,1225,1225,1225,1225,1225,1225,1225,1138,1138,1138,1138,1138,1225,1433,1225,1225,1127,1225,1225,1225,1225,1225,1433,1225,1225,1225,1225,1225,1225,1225,1225,1225,1225,1225,1225,1225,1225,1225,1225,1225,1225,1225,1225,1225,1225,1225,1225,1225,1225,
1225,1225,1225,1225,1225,1225,1225,1225,1225,1225,1225,1225,1225,1225,1225,1225,1127,1225,1225,1225,1225,1225,1127,1225,1225,1225,1225,1225,1225,1225,1225,1225,1225,1225,1225,1225,1225,1225,1138,1138,1138,1138,1138,1225,1433,1225,1225,1225,1225,1225,1225,1225,1225,1225,1225,1225,1225,1225,1225,1225,1225,1225,1225,1225,1225,1225,1225,1225,1225,1225,1225,1225,1225,1225,1225,1225,1225,1225,1225,1225,
1225,1225,1225,1225,1225,1225,1225,1225,1225,1225,1225,1225,1225,1225,1225,1433,1225,1225,1225,1225,1433,1225,1225,1225,1225,1225,1225,1225,1225,1225,1225,1225,1225,1225,1225,1225,1225,1225,1225,1225,1225,1225,1225,1225,1225,1225,1225,1225,1225,1225,1225,1225,1225,1225,1225,1225,1225,1225,1225,1225,1225,1225,1225,1225,1225,1127,1225,1127,1225,1225,1225,1225,1225,1225,1225,1225,1225,1225,1225,1225,
1225,1225,1225,1225,1225,1225,1225,1225,1225,1225,1225,1225,1225,1225,1225,1225,1225,1225,1225,1225,1225,1225,1225,1225,1225,1225,1225,1225,1225,1225,1225,1225,1225,1225,1225,1225,1225,1225,1225,1225,1225,1225,1225,1225,1225,1225,1225,1225,1225,1225,1225,1225,1225,1225,1225,1225,1433,1225,1225,1225,1225,1225,1225,1433,1225,1127,1225,1225,1225,1225,1225,1225,1225,1225,1225,1225,1225,1225,1225,1225,
1225,1225,1225,1225,1225,1225,1225,1225,1225,1225,1225,1225,1225,1225,1225,1225,1225,1225,1225,1127,1225,1225,1225,1225,1225,1225,1225,1225,1225,1225,1225,1225,1225,1225,1225,1225,1225,1225,1225,1225,1225,1225,1225,1225,1225,1225,1225,1225,1225,1225,1225,1225,1225,1225,1225,1225,1225,1225,1225,1225,1225,1225,1225,1225,1225,1225,1225,1225,1225,1225,1225,1225,1225,1225,1225,1225,1225,1225,1225,1225,
1225,1225,1225,1225,1225,1225,1225,1225,1225,1225,1225,1225,1225,1433,1225,1225,1225,1225,1225,1433,1225,1433,1225,1225,1225,1225,1225,1225,1225,1225,1225,1225,1225,1225,1225,1225,1225,1225,1225,1225,1225,1225,1225,1225,1225,1225,1225,1225,1225,1225,1225,1225,1225,1127,1225,1225,1225,1225,1225,1225,1225,1225,1225,1225,1225,1225,1225,1225,1433,1225,1225,1225,1225,1225,1225,1225,1225,1225,1225,1225,
1225,1225,1225,1225,1225,1225,1225,1225,1225,1225,1225,1225,1225,1225,1225,1225,1225,1225,1225,1225,1225,1225,1225,1225,1225,1225,1225,1225,1225,1225,1225,1225,1225,1225,1225,1225,1225,1225,1225,1225,1225,1225,1225,1225,1225,1225,1225,1225,1225,1225,1225,1225,1225,1225,1225,1433,1225,1225,1225,1225,1225,1225,1433,1433,1225,1225,1225,1225,1225,1225,1225,1225,1225,1225,1225,1225,1225,1225,1225,1225,
1225,1225,1225,1225,1225,1225,1225,1225,1225,1225,1225,1225,1127,1127,1225,1225,1225,1225,1225,1225,1225,1225,1225,1225,1225,1225,1433,1433,1225,1127,1127,1225,1138,1138,1138,1138,1138,1138,1138,1225,1225,1225,1433,1433,1225,1225,1225,1225,1225,1225,1225,1225,1225,1225,1225,1225,1225,1225,1225,1225,1225,1225,1225,1225,1225,1225,1225,1225,1225,1225,1225,1225,1225,1225,1225,1225,1225,1225,1225,1225,
1225,1225,1225,1225,1225,1225,1225,1225,1225,1225,1225,1225,1225,1225,1127,1225,1225,1225,1225,1225,1225,1225,1225,1225,1225,1225,1225,1225,1225,1225,1225,1225,1138,1138,1138,1138,1138,1138,1138,1225,1225,1433,1225,1225,1225,1225,1225,1225,1225,1225,1225,1225,1225,1225,1225,1127,1433,1127,1225,1225,1225,1225,1225,1225,1225,1225,1225,1225,1225,1225,1225,1225,1225,1225,1127,1225,1225,1225,1225,1225,
1225,1225,1225,1225,1225,1225,1225,1225,1225,1225,1225,1225,1225,1225,1225,1225,1225,1225,1225,1225,1225,1225,1225,1225,1225,1225,1225,1225,1225,1225,1127,1225,1225,1138,1138,1138,1138,1138,1225,1225,1225,1225,1225,1225,1225,1225,1225,1225,1225,1225,1225,1225,1225,1225,1225,1433,1225,1225,1225,1225,1225,1225,1225,1225,1225,1225,1225,1225,1225,1225,1225,1225,1225,1225,1127,1127,1225,1225,1225,1225,
1225,1225,1225,1225,1433,1433,1225,1225,1225,1225,1225,1225,1225,1225,1225,1225,1225,1225,1225,1225,1225,1225,1225,1225,1225,1225,1225,1225,1225,1225,1225,1225,1225,1138,1138,1138,1138,1138,1225,1225,1433,1225,1225,1225,1225,1225,1225,1225,1225,1225,1225,1225,1225,1225,1225,1225,1225,1225,1225,1225,1225,1127,1225,1225,1225,1225,1225,1225,1225,1225,1225,1225,1225,1225,1225,1225,1225,1433,1225,1225,
1225,1225,1225,1225,1225,1225,1225,1225,1225,1433,1225,1225,1225,1225,1225,1225,1225,1225,1225,1225,1225,1225,1433,1127,1225,1225,1225,1225,1225,1225,1225,1225,1225,1225,1138,1138,1138,1138,1138,1127,1225,1225,1225,1225,1225,1433,1225,1225,1225,1225,1225,1225,1225,1225,1225,1225,1225,1225,1225,1225,1225,1225,1138,1225,1225,1225,1225,1225,1225,1225,1225,1225,1225,1225,1225,1225,1225,1225,1225,1225,
1225,1225,1225,1225,1225,1225,1433,1225,1225,1225,1225,1225,1225,1225,1225,1225,1225,1225,1225,1225,1225,1433,1433,1225,1225,1225,1225,1225,1225,1225,1225,1225,1225,1225,1433,1138,1138,1138,1138,1138,1225,1225,1225,1225,1225,1225,1225,1225,1225,1225,1225,1225,1225,1225,1225,1225,1225,1225,1225,1138,1138,1138,1138,1138,1138,1138,1225,1225,1225,1433,1225,1225,1225,1225,1225,1225,1225,1225,1225,1225,
1225,1225,1225,1225,1225,1225,1225,1225,1225,1225,1225,1225,1225,1225,1225,1225,1225,1225,1225,1225,1225,1433,1225,1225,1225,1225,1225,1225,1225,1225,1127,1225,1433,1225,1225,1225,1138,1138,1138,1138,1138,1225,1225,1225,1225,1225,1225,1225,1225,1225,1225,1225,1225,1225,1225,1225,1225,1138,1138,1138,1138,1138,1138,1138,1138,1138,1138,1138,1225,1225,1225,1225,1225,1225,1225,1225,1225,1225,1225,1225,
1225,1225,1225,1225,1225,1225,1225,1225,1225,1225,1225,1225,1225,1225,1225,1225,1225,1225,1225,1225,1225,1225,1127,1225,1225,1225,1225,1225,1225,1225,1225,1225,1225,1225,1433,1225,1225,1138,1138,1138,1138,1138,1138,1138,1225,1225,1225,1225,1225,1225,1225,1225,1225,1225,1225,1225,1225,1138,1138,1138,1138,1138,1138,1138,1138,1138,1138,1138,1225,1127,1433,1225,1127,1225,1225,1225,1225,1225,1225,1225,
1225,1225,1225,1225,1225,1225,1225,1225,1225,1225,1225,1225,1225,1225,1225,1225,1225,1225,1225,1225,1225,1225,1225,1225,1225,1225,1225,1225,1225,1225,1225,1225,1127,1127,1225,1225,1225,1138,1138,1138,1138,1138,1138,1138,1225,1225,1225,1225,1225,1225,1225,1225,1225,1225,1225,1225,1138,1138,1138,1138,1138,1138,1138,1138,1138,1138,1138,1138,1138,1225,1225,1127,1225,1225,1225,1225,1225,1225,1225,1225,
1225,1225,1225,1225,1225,1225,1225,1225,1225,1225,1225,1225,1225,1225,1225,1225,1225,1225,1225,1225,1225,1225,1225,1225,1225,1225,1225,1225,1225,1225,1127,1225,1225,1225,1225,1225,1225,1225,1138,1138,1138,1138,1138,1138,1138,1225,1225,1225,1225,1225,1225,1225,1225,1225,1433,1433,1225,1138,1138,1138,1138,1138,1138,1138,1138,1138,1138,1138,1225,1225,1225,1225,1225,1225,1225,1225,1225,1225,1225,1225,
1225,1225,1225,1225,1225,1225,1225,1225,1225,1225,1225,1225,1225,1225,1225,1225,1225,1225,1225,1225,1225,1225,1225,1225,1225,1225,1225,1225,1225,1225,1225,1225,1225,1225,1225,1225,1225,1225,1225,1138,1138,1138,1138,1138,1138,1138,1225,1127,1225,1225,1225,1225,1225,1225,1225,1225,1225,1138,1138,1138,1138,1138,1138,1138,1138,1138,1138,1138,1225,1225,1225,1225,1225,1225,1225,1225,1225,1225,1225,1225,
1225,1225,1225,1225,1225,1225,1225,1225,1225,1225,1225,1225,1225,1225,1225,1225,1225,1225,1225,1225,1225,1225,1225,1225,1225,1225,1225,1225,1225,1225,1225,1225,1225,1225,1225,1225,1225,1225,1225,1138,1138,1138,1138,1138,1138,1138,1225,1225,1225,1225,1225,1225,1225,1225,1433,1225,1225,1225,1225,1138,1138,1138,1138,1138,1138,1138,1225,1225,1225,1225,1225,1225,1225,1225,1225,1225,1225,1225,1225,1225,
1225,1225,1225,1225,1225,1225,1225,1225,1127,1225,1225,1225,1225,1225,1225,1225,1225,1225,1225,1225,1225,1225,1225,1225,1225,1225,1225,1225,1225,1225,1225,1225,1225,1225,1225,1225,1225,1225,1225,1225,1225,1138,1138,1138,1138,1138,1225,1225,1225,1225,1225,1225,1225,1225,1225,1225,1225,1225,1225,1225,1225,1225,1138,1225,1225,1225,1225,1225,1225,1225,1225,1225,1225,1225,1225,1225,1225,1225,1225,1225,
1225,1225,1225,1225,1225,1225,1225,1225,1225,1225,1225,1225,1225,1225,1225,1225,1225,1225,1225,1225,1225,1225,1225,1225,1225,1225,1225,1225,1225,1225,1225,1225,1225,1225,1225,1225,1225,1225,1225,1225,1225,1138,1138,1138,1138,1138,1225,1225,1225,1225,1225,1225,1225,1225,1225,1127,1225,1225,1225,1225,1225,1225,1225,1225,1225,1225,1225,1225,1225,1225,1225,1225,1225,1225,1225,1225,1225,1225,1225,1225,
1225,1225,1225,1225,1225,1225,1225,1225,1225,1225,1225,1225,1225,1225,1225,1225,1225,1225,1225,1225,1225,1225,1127,1127,1127,1225,1127,1433,1225,1225,1225,1225,1225,1225,1225,1225,1225,1225,1225,1225,1138,1138,1138,1138,1138,1225,1225,1225,1225,1225,1225,1225,1225,1225,1225,1225,1225,1225,1225,1225,1225,1225,1225,1225,1225,1225,1225,1225,1225,1225,1225,1225,1225,1225,1225,1225,1225,1225,1225,1225,
1225,1225,1225,1225,1225,1225,1225,1225,1225,1225,1225,1225,1225,1225,1225,1225,1225,1225,1225,1225,1225,1225,1225,1225,1225,1225,1225,1225,1225,1225,1225,1225,1225,1225,1225,1225,1225,1433,1225,1225,1138,1138,1138,1138,1138,1225,1225,1225,1225,1225,1225,1225,1225,1225,1127,1225,1225,1225,1225,1225,1225,1225,1225,1225,1225,1225,1225,1225,1433,1225,1225,1225,1225,1225,1225,1225,1225,1225,1225,1225,
1225,1433,1225,1225,1225,1225,1225,1225,1225,1225,1225,1225,1127,1225,1225,1225,1225,1225,1225,1225,1225,1225,1225,1225,1225,1225,1225,1225,1225,1225,1225,1225,1225,1225,1433,1225,1225,1225,1225,1225,1138,1138,1138,1138,1138,1225,1225,1225,1225,1225,1225,1225,1225,1225,1225,1225,1225,1225,1225,1225,1225,1225,1225,1225,1225,1225,1225,1225,1225,1225,1225,1225,1225,1225,1225,1225,1225,1225,1225,1225,
1225,1225,1225,1225,1225,1225,1225,1225,1225,1225,1225,1225,1225,1127,1225,1225,1225,1225,1225,1225,1225,1225,1225,1225,1225,1225,1225,1225,1225,1225,1225,1225,1225,1225,1433,1225,1225,1225,1225,1138,1138,1138,1138,1138,1138,1138,1225,1225,1225,1225,1225,1225,1225,1225,1225,1225,1225,1225,1225,1225,1225,1225,1225,1225,1225,1225,1225,1225,1225,1225,1225,1225,1225,1225,1225,1225,1225,1225,1225,1225,
1225,1225,1225,1225,1225,1225,1225,1225,1225,1225,1225,1225,1127,1225,1225,1225,1225,1225,1225,1225,1225,1225,1433,1225,1225,1225,1225,1225,1225,1225,1225,1225,1225,1225,1433,1225,1225,1225,1138,1138,1138,1138,1138,1138,1138,1225,1225,1225,1225,1225,1225,1225,1225,1225,1225,1225,1225,1225,1225,1225,1225,1225,1225,1225,1225,1225,1225,1225,1225,1225,1225,1225,1225,1225,1225,1225,1225,1225,1225,1225,
1225,1225,1225,1225,1225,1225,1225,1225,1433,1225,1225,1225,1225,1225,1225,1225,1225,1225,1225,1225,1225,1225,1225,1225,1225,1225,1225,1225,1433,1225,1225,1225,1225,1225,1225,1225,1225,1225,1225,1138,1138,1138,1138,1138,1138,1138,1225,1225,1225,1225,1225,1225,1225,1127,1225,1225,1225,1225,1225,1225,1225,1225,1225,1225,1225,1225,1225,1225,1225,1225,1225,1225,1225,1225,1225,1225,1225,1225,1225,1225,
1225,1225,1225,1225,1225,1225,1225,1225,1225,1225,1225,1225,1225,1225,1225,1225,1225,1225,1225,1225,1225,1225,1225,1225,1225,1225,1225,1225,1225,1225,1225,1225,1225,1225,1225,1225,1225,1225,1225,1138,1138,1138,1138,1138,1138,1138,1225,1225,1225,1225,1225,1225,1225,1225,1225,1225,1225,1225,1225,1225,1225,1225,1225,1225,1225,1225,1225,1225,1225,1225,1225,1225,1225,1433,1127,1225,1225,1225,1225,1225,
1225,1225,1225,1225,1225,1225,1225,1127,1225,1225,1225,1225,1225,1225,1225,1225,1225,1225,1225,1225,1225,1225,1225,1225,1225,1225,1225,1225,1225,1225,1225,1127,1225,1225,1225,1225,1225,1225,1225,1138,1138,1138,1138,1138,1138,1138,1225,1225,1225,1225,1225,1225,1225,1225,1225,1225,1225,1225,1225,1225,1225,1225,1225,1225,1225,1225,1225,1225,1225,1225,1225,1225,1225,1225,1225,1225,1225,1225,1225,1225
</data>
 </layer>
</map>
