<?xml version="1.0" encoding="UTF-8"?>
<map version="1.10" tiledversion="1.12.2" orientation="orthogonal" renderorder="right-down" width="70" height="45" tilewidth="16" tileheight="16" infinite="0" nextlayerid="2" nextobjectid="1">
 <tileset firstgid="1" name="terrain_tileset" tilewidth="16" tileheight="16" tilecount="1530" columns="51">
  <image source="terrain_tileset.png" width="816" height="480"/>
 </tileset>
 <layer id="1" name="Tile Layer 1" width="70" height="45">
  <data encoding="csv">
206,206,206,206,206,206,206,206,206,206,206,206,107,206,206,206,206,206,206,206,206,107,206,206,206,206,206,206,206,206,206,206,206,11,11,11,11,11,206,206,206,206,206,206,206,206,206,206,206,206,206,206,206,206,206,206,206,206,206,206,206,206,206,206,413,206,206,206,206,206,
206,206,206,206,206,206,206,206,206,206,206,107,206,206,206,206,206,206,206,206,206,206,206,206,206,206,206,206,206,206,206,206,206,206,11,11,11,11,11,206,107,206,206,206,206,206,206,206,206,206,206,206,206,206,206,206,206,206,107,206,206,206,206,206,206,206,206,206,206,206,
206,206,206,206,206,206,206,206,206,206,206,206,206,413,206,206,206,206,206,206,206,206,206,206,206,206,206,206,206,107,206,206,206,206,206,11,11,11,11,11,206,206,206,206,206,206,206,206,206,206,206,206,206,206,206,206,206,206,206,206,206,206,206,206,206,107,206,206,206,206,
206,206,206,206,206,206,206,206,206,206,206,206,206,206,206,206,206,206,206,206,206,206,413,206,206,206,206,206,413,206,206,206,206,206,206,107,11,11,11,11,11,206,206,206,206,413,206,206,206,206,206,206,206,206,206,206,206,206,413,206,206,206,206,206,206,206,107,206,206,206,
206,206,206,206,206,206,206,206,206,206,206,206,206,206,206,206,206,206,206,206,206,206,206,206,206,206,206,206,206,206,206,206,413,206,206,206,206,11,11,11,11,11,206,206,206,206,206,206,206,206,206,206,206,206,206,206,206,206,206,206,206,206,206,206,206,206,206,206,206,206,
206,206,206,206,206,206,206,206,206,206,206,206,206,206,206,206,206,206,206,206,206,206,206,206,206,206,206,206,206,206,206,206,206,206,206,206,11,11,11,11,11,11,11,206,413,206,206,206,206,206,206,206,206,206,206,206,206,206,206,206,107,206,206,206,206,206,206,107,206,206,
206,206,206,206,206,206,206,206,206,206,206,206,206,206,206,206,206,413,206,206,206,206,206,206,206,206,206,206,206,206,206,206,206,206,413,206,11,11,11,11,11,11,11,206,206,206,107,206,206,206,206,206,206,206,206,206,206,206,206,206,413,206,206,206,206,206,206,206,206,206,
206,206,107,206,206,206,206,206,206,206,206,206,107,206,413,206,206,206,206,206,206,206,206,206,206,206,206,206,206,206,206,206,206,206,206,206,11,11,11,11,11,11,11,206,206,206,206,206,206,206,206,206,206,206,206,206,206,206,206,206,206,206,206,206,206,206,206,206,206,206,
206,206,413,206,206,206,206,206,206,206,206,206,107,206,206,206,206,206,206,206,206,206,206,206,206,206,206,206,206,206,206,206,206,206,206,107,11,11,11,11,11,11,11,206,206,206,206,206,206,206,206,206,206,206,206,206,206,206,206,206,206,206,206,206,206,206,206,206,206,206,
206,206,413,206,206,206,206,206,206,206,206,206,206,206,206,206,206,206,206,206,206,206,206,206,206,206,206,206,206,206,206,206,206,206,206,11,11,11,11,11,11,11,206,206,206,206,206,206,206,206,206,206,206,206,206,206,206,206,206,206,206,206,206,206,206,206,206,206,206,206,
206,206,107,206,206,206,206,206,206,206,206,206,206,206,206,206,206,206,206,206,206,206,206,206,206,206,206,206,206,206,206,206,206,206,206,11,11,11,11,11,206,206,206,206,206,206,206,206,206,206,206,206,206,206,206,206,206,107,206,206,206,206,206,206,206,206,206,206,206,206,
206,206,107,206,206,206,206,206,206,206,206,206,206,206,206,206,206,11,206,206,206,206,206,206,206,206,206,206,206,206,206,206,206,206,206,11,11,11,11,11,206,206,206,206,206,206,206,206,206,206,206,206,206,206,206,206,206,206,206,206,206,206,206,206,206,206,206,206,206,206,
206,206,206,206,206,206,206,206,206,206,206,206,206,11,11,11,11,11,11,11,11,11,206,206,206,206,206,206,206,206,206,206,206,206,11,11,11,11,11,206,206,413,206,206,206,206,107,107,206,206,206,206,206,206,206,206,206,206,206,206,206,206,206,206,206,206,206,206,206,206,
206,206,206,206,206,206,206,206,206,206,206,11,11,11,11,11,11,11,11,11,11,11,11,11,206,206,206,206,206,206,206,206,206,206,11,11,11,11,11,206,206,413,206,206,206,206,206,206,206,206,206,206,206,206,206,206,206,206,206,206,206,206,206,206,206,206,206,206,206,206,
206,206,206,206,206,206,206,206,206,206,206,11,11,11,11,11,11,11,11,11,11,11,11,11,206,206,206,206,206,206,206,206,206,206,11,11,11,11,11,206,206,206,206,206,206,206,206,206,206,206,206,206,206,206,206,206,206,206,206,206,206,206,206,206,206,206,206,206,206,206,
206,206,206,206,206,206,206,206,206,206,11,11,11,11,11,11,11,11,11,11,11,11,11,11,11,206,206,206,206,107,206,206,206,11,11,11,11,11,11,11,206,206,206,206,206,206,206,206,206,206,206,107,206,206,206,206,206,206,206,206,206,206,206,206,206,206,206,206,206,206,
206,206,206,206,107,206,206,206,206,206,206,11,11,11,11,11,11,11,11,11,11,11,11,11,206,206,206,206,206,107,206,206,206,11,11,11,11,11,11,11,206,206,206,206,206,206,206,206,206,206,206,107,206,107,206,206,107,206,107,206,206,206,206,206,206,206,206,206,206,206,
206,206,206,206,206,413,206,206,206,206,206,11,11,11,11,11,11,11,11,11,11,11,11,11,206,206,206,206,206,206,206,206,206,11,11,11,11,11,11,11,206,206,206,206,206,206,206,206,206,206,206,206,206,206,206,206,206,206,107,206,206,206,206,206,206,206,206,206,206,206,
206,206,206,206,107,206,206,206,206,206,206,206,206,11,11,11,11,11,11,11,11,11,206,206,206,206,206,206,206,206,206,206,206,11,11,11,11,11,11,11,206,206,206,206,206,206,206,206,206,206,206,206,206,206,206,206,206,206,206,206,206,206,206,206,206,206,206,413,206,206,
206,206,206,206,206,206,206,206,206,107,206,206,206,206,206,206,206,11,206,206,206,206,206,206,206,206,206,206,206,206,206,206,206,11,11,11,11,11,11,11,206,206,206,206,206,206,206,206,206,206,206,206,206,206,206,206,206,206,206,206,206,206,206,206,206,206,206,206,206,206,
206,206,206,206,206,206,206,206,206,413,206,206,206,206,206,206,206,206,206,206,206,206,206,206,206,206,206,206,206,206,206,206,206,206,11,11,11,11,11,206,206,206,107,206,206,206,206,206,206,206,206,206,206,206,206,206,206,206,206,206,206,206,206,206,206,206,206,206,206,206,
206,206,206,206,206,206,206,413,206,206,206,206,206,206,206,206,206,206,206,206,206,206,206,206,206,206,206,206,206,206,206,206,206,11,11,11,11,11,206,206,206,206,206,413,206,206,206,206,206,107,413,206,206,206,206,206,206,206,206,206,206,206,206,206,206,206,206,206,206,206,
206,206,206,206,206,206,206,206,206,206,206,206,206,206,206,206,206,206,206,107,107,206,206,206,206,206,206,206,206,206,206,206,206,11,11,11,11,11,206,206,206,206,206,206,206,206,206,206,206,206,206,206,206,206,206,206,206,206,206,206,206,206,206,206,206,206,206,206,206,206,
206,206,206,206,206,206,206,206,206,206,206,206,206,206,206,206,206,206,413,206,413,206,206,206,206,206,206,206,206,206,206,206,206,11,11,11,11,11,206,206,206,206,206,206,206,206,206,206,206,206,107,206,206,206,206,206,206,206,206,206,206,206,206,206,206,206,206,206,206,206,
206,206,206,206,206,206,206,206,206,206,206,206,206,206,206,206,206,206,206,206,107,206,206,206,206,206,206,206,107,206,206,11,11,11,11,11,206,206,206,206,206,206,206,206,206,206,206,206,206,206,206,206,206,206,206,206,206,206,206,206,206,206,206,206,206,206,206,206,206,206,
206,206,206,206,206,206,206,206,206,206,206,206,206,206,206,206,206,206,206,206,206,206,206,206,206,206,206,206,206,11,11,11,11,11,11,11,206,206,206,206,206,206,206,206,206,206,206,206,206,206,206,206,206,206,206,206,206,206,206,206,206,206,206,206,206,206,206,206,206,206,
206,206,206,206,206,206,206,206,206,206,206,206,206,206,206,206,206,206,206,206,206,206,206,206,206,206,206,206,11,11,11,11,11,11,11,206,206,206,206,206,206,206,206,206,206,206,206,206,206,206,206,206,206,206,206,206,206,206,206,206,206,206,206,206,206,206,206,206,206,206,
206,206,206,206,206,206,206,206,206,206,206,206,206,206,206,206,206,206,206,206,206,206,413,206,206,206,206,206,206,413,206,206,206,206,206,206,206,206,206,206,206,206,206,206,107,206,206,206,206,206,206,206,206,206,206,206,206,206,206,206,206,206,206,206,206,206,206,206,206,206,
206,206,206,206,206,206,206,206,206,206,206,206,206,206,206,206,206,206,206,206,206,206,413,206,206,206,206,206,107,206,206,206,206,206,206,206,206,206,206,206,206,206,206,206,206,206,206,206,206,206,206,206,206,206,11,206,206,206,206,206,206,206,206,206,206,206,206,206,206,206,
206,206,206,206,206,206,206,206,206,206,206,206,206,206,206,206,206,206,206,206,206,206,206,206,206,206,206,206,206,206,107,206,206,206,206,206,206,206,206,206,206,206,206,206,107,206,413,206,206,206,206,11,11,11,11,11,11,11,206,206,413,206,206,206,206,206,206,206,206,206,
206,206,206,206,206,206,206,206,206,206,206,206,206,206,206,206,206,206,206,206,206,206,206,206,206,107,206,206,206,206,206,107,206,206,206,206,206,206,206,206,206,206,206,206,206,206,206,206,206,11,11,11,11,11,11,11,11,11,11,11,206,206,206,206,206,206,107,107,206,206,
206,206,206,206,206,206,206,206,206,107,206,206,206,206,206,206,206,206,206,206,206,206,206,206,206,206,206,206,206,206,206,206,206,206,206,206,206,206,206,206,206,206,206,206,206,206,206,206,206,11,11,11,11,11,11,11,11,11,11,11,206,206,206,206,206,206,206,206,206,206,
206,206,206,206,206,206,206,206,206,206,206,206,206,206,206,206,206,206,206,206,206,206,206,206,206,206,206,206,206,11,11,11,11,11,206,206,206,206,206,206,206,206,206,206,206,206,206,206,11,11,11,11,11,11,11,11,11,11,11,11,11,206,206,206,206,206,206,206,107,206,
206,206,206,206,206,206,206,206,206,206,206,206,206,206,206,206,206,206,206,206,206,206,206,206,206,206,206,206,206,206,11,11,11,11,11,206,206,206,206,206,206,206,206,206,206,206,206,206,206,11,11,11,11,11,11,11,11,11,11,11,206,206,206,206,206,206,206,413,206,206,
206,206,206,206,206,206,206,206,206,206,206,206,206,206,206,206,206,206,206,206,206,206,206,206,206,206,206,206,206,206,206,11,11,11,11,11,206,206,206,206,206,206,206,206,206,206,206,206,206,11,11,11,11,11,11,11,11,11,11,11,206,206,206,206,206,206,206,206,206,206,
206,206,206,206,206,206,206,206,206,206,206,107,206,206,206,206,206,206,206,206,206,206,206,206,206,206,206,206,206,206,206,206,11,11,11,11,11,11,11,206,206,206,206,206,206,206,206,206,206,206,206,11,11,11,11,11,11,11,206,206,206,206,206,206,206,206,206,206,206,206,
206,206,206,206,206,206,206,206,206,206,206,206,206,206,206,206,206,206,206,206,206,206,206,206,206,206,206,206,206,206,206,206,11,11,11,11,11,11,11,206,206,206,206,206,206,206,206,206,206,206,206,206,206,206,11,206,206,206,206,206,206,206,206,206,206,206,206,206,206,206,
206,206,206,206,206,206,107,206,206,206,107,107,206,206,206,206,206,206,206,206,206,206,206,206,206,206,206,206,206,206,206,206,206,11,11,11,11,11,11,11,206,206,206,206,206,206,206,206,206,206,206,206,206,206,206,206,206,206,206,206,206,206,206,206,206,206,206,206,206,206,
206,206,206,206,206,206,206,206,206,206,206,206,206,206,206,206,206,206,206,206,206,206,206,206,206,206,206,206,206,206,206,206,206,206,11,11,11,11,11,11,11,206,206,206,206,206,206,206,206,206,206,206,206,206,206,206,206,206,206,206,206,206,206,206,206,206,206,206,206,206,
206,206,206,206,206,206,206,206,206,206,206,206,206,206,206,206,206,206,206,206,206,206,206,206,206,206,206,206,206,206,206,206,206,206,11,11,11,11,11,11,11,206,206,206,107,206,206,206,206,206,206,206,206,206,206,413,206,206,206,206,206,206,206,206,206,206,206,206,206,206,
206,206,206,206,206,206,206,206,206,206,206,206,206,206,206,206,206,206,206,206,206,206,206,206,206,206,206,206,206,206,206,206,206,206,206,206,11,11,11,11,11,206,206,206,206,206,206,206,206,206,206,206,206,206,206,206,206,206,206,206,206,206,206,206,206,206,206,206,206,206,
206,206,206,206,206,206,206,206,206,206,206,206,206,206,206,206,206,206,206,206,206,206,206,206,206,206,206,206,206,206,206,206,206,206,206,206,11,11,11,11,11,206,206,206,206,206,107,206,206,206,206,206,206,206,206,206,206,206,206,206,206,206,206,206,206,206,206,206,206,206,
206,206,206,206,206,206,206,206,206,206,206,206,206,206,206,206,206,206,206,206,206,206,206,413,206,107,206,206,206,206,206,206,206,206,206,11,11,11,11,11,206,206,206,206,206,206,206,206,206,206,206,206,206,206,206,206,206,206,206,206,206,206,206,206,206,206,206,206,206,206,
206,206,206,206,206,206,206,206,206,206,206,206,206,206,206,206,206,206,206,206,206,206,206,206,206,206,206,206,206,206,206,206,206,206,206,11,11,11,11,11,206,206,206,206,206,413,206,107,206,206,206,206,206,206,206,206,206,206,206,206,206,206,206,206,206,206,206,206,206,206,
206,206,206,206,206,206,206,206,206,206,206,206,206,206,206,206,206,206,206,206,206,206,206,206,206,206,206,413,206,206,206,206,206,206,206,11,11,11,11,11,206,206,206,206,206,206,206,206,206,206,206,206,206,206,206,206,206,206,206,206,206,206,206,206,206,206,206,206,206,206
</data>
 </layer>
</map>
